X: 15
T:Whiteside's Hornpipe (#320)
M:4/4
L:1/8
S:James Whiteside, manuscript
R:Hornpipe
K:G
gf|:dcAc BAGB|AF (3DEF G2 Bc|dedB cBAB|c2 A2 A2 Bc|
dBGB cAFA|GF (3DEF G2 Bc|dfgf dcAF|G2 GF GABc:|
|:dd (3ddd dBGB|cc (3ccc cAFA|BB (3BBB BAGB|AGFA c2 Bc|
dd (3ddd dBGB|cc (3ccc cAFA|BAGB AGFA|G2 G2 G2 z2:||

